X:60
T:Regret
T:[Rveillez (5)]
R:Remerciement
M:2/4
L:1/8
N:Assez anime
N:La Bourre 4th edition 1929, page 64
Z:Steve Mansfield www.lesession.co.uk May 2012
K:Am
c B | A > c e d | (3cB A c B |
A > c e e | !fermata! B2 E E | A > B c A | d2 (3B A B | A2 G- |
G2 A A | B > c B A | d2 (3B c B | A B A2- | A2 z2 |]
<end>
<start>
